X:1
T:Maggie Pickie
S:Paul O'Shaughnessy
Z:Juergen.Gier@post.rwth-aachen.de
M:C|
L:1/8
K:A
AE~E2 ABc2|BAcA BAFB|AE~E2 ABcB|1Aaec BAcB:|2Aaec (3BeB A2|]\
agfe fec2|dBcA BAF2|agfe feca|ABcA (3BeB A2|\
agfe fec2|dBcA BAFB|AE~E2 ABcB|Aaec BAcB|]
